svgs/duotone/rectangle-list.svg

<svg xmlns="http://www.w3.org/2000/svg" viewBox="0 0 576 512"><!--! Font Awesome Pro 6.4.2 by @fontawesome - https://fontawesome.com License - https://fontawesome.com/license (Commercial License) Copyright 2023 Fonticons, Inc. --><path class="fa-primary" style="fill:var(--fa-primary-color,inherit);opacity:var(--fa-primary-opacity,1);" d="M200 160c0-13.3 10.7-24 24-24H448c13.3 0 24 10.7 24 24s-10.7 24-24 24H224c-13.3 0-24-10.7-24-24zm0 192c0-13.3 10.7-24 24-24H448c13.3 0 24 10.7 24 24s-10.7 24-24 24H224c-13.3 0-24-10.7-24-24zm24-120H448c13.3 0 24 10.7 24 24s-10.7 24-24 24H224c-13.3 0-24-10.7-24-24s10.7-24 24-24z"/><path class="fa-secondary" style="fill:var(--fa-secondary-color,inherit);opacity:var(--fa-secondary-opacity,.4);" d="M0 96C0 60.7 28.7 32 64 32H512c35.3 0 64 28.7 64 64V416c0 35.3-28.7 64-64 64H64c-35.3 0-64-28.7-64-64V96zM128 288a32 32 0 1 0 0-64 32 32 0 1 0 0 64zm32-128a32 32 0 1 0 -64 0 32 32 0 1 0 64 0zM128 384a32 32 0 1 0 0-64 32 32 0 1 0 0 64zm96-248c-13.3 0-24 10.7-24 24s10.7 24 24 24H448c13.3 0 24-10.7 24-24s-10.7-24-24-24H224zM200 352c0 13.3 10.7 24 24 24H448c13.3 0 24-10.7 24-24s-10.7-24-24-24H224c-13.3 0-24 10.7-24 24zm24-120c-13.3 0-24 10.7-24 24s10.7 24 24 24H448c13.3 0 24-10.7 24-24s-10.7-24-24-24H224z"/></svg>

<svg xmlns="http://www.w3.org/2000/svg" viewBox="0 0 576 512"><!--! Font Awesome Pro 6.1.1 by @fontawesome - https://fontawesome.com License - https://fontawesome.com/license (Commercial License) Copyright 2022 Fonticons, Inc. --><defs><style>.fa-secondary{opacity:.4}</style></defs><path class="fa-primary" d="M200 160C200 146.7 210.7 136 224 136H448C461.3 136 472 146.7 472 160C472 173.3 461.3 184 448 184H224C210.7 184 200 173.3 200 160zM200 352C200 338.7 210.7 328 224 328H448C461.3 328 472 338.7 472 352C472 365.3 461.3 376 448 376H224C210.7 376 200 365.3 200 352zM448 232C461.3 232 472 242.7 472 256C472 269.3 461.3 280 448 280H224C210.7 280 200 269.3 200 256C200 242.7 210.7 232 224 232H448z"/><path class="fa-secondary" d="M0 96C0 60.65 28.65 32 64 32H512C547.3 32 576 60.65 576 96V416C576 451.3 547.3 480 512 480H64C28.65 480 0 451.3 0 416V96zM160 256C160 238.3 145.7 224 128 224C110.3 224 96 238.3 96 256C96 273.7 110.3 288 128 288C145.7 288 160 273.7 160 256zM160 160C160 142.3 145.7 128 128 128C110.3 128 96 142.3 96 160C96 177.7 110.3 192 128 192C145.7 192 160 177.7 160 160zM160 352C160 334.3 145.7 320 128 320C110.3 320 96 334.3 96 352C96 369.7 110.3 384 128 384C145.7 384 160 369.7 160 352zM224 136C210.7 136 200 146.7 200 160C200 173.3 210.7 184 224 184H448C461.3 184 472 173.3 472 160C472 146.7 461.3 136 448 136H224zM224 376H448C461.3 376 472 365.3 472 352C472 338.7 461.3 328 448 328H224C210.7 328 200 338.7 200 352C200 365.3 210.7 376 224 376zM224 232C210.7 232 200 242.7 200 256C200 269.3 210.7 280 224 280H448C461.3 280 472 269.3 472 256C472 242.7 461.3 232 448 232H224z"/></svg>
